X: 106202
Q: "Reel."
M: C
L: 1/8
K: Em
E2EF B2B^c | d2(AG) FDDF |\
E2EF B2B^c | dBAF GEEF |\
E2EF B2B^c | d2(AG) FDDF |\
EFGA B2(Bg) | fdBd e2-e |]
eBef geBg | fbag fddf |\
eBef geBg | bgaf e2(eB) |\
eBef geBg | fdAG FEDf |\
geBg AfGe | FdAF E2-E |]


